svg/blobs-icons/no-decorations/mountains.svg

<svg xmlns="http://www.w3.org/2000/svg" xmlns:xlink="http://www.w3.org/1999/xlink" preserveAspectRatio="xMidYMid" width="217" height="208" viewBox="0 0 217 208"><defs><style>.cls-3{fill:#142a3b}.cls-4{fill:#020403;opacity:.35}.cls-5{fill:#0cb04a}.cls-6{fill:#fbb713}</style></defs><g id="group-27svg"><path d="M169.747 201.723S216.861 199.579 216.861 199.579 163.156 85.205 163.156 85.205s-19.488 53.708-19.488 53.708 26.079 62.81 26.079 62.81z" id="path-1" class="cls-3" fill-rule="evenodd"/><path d="M166.1 171.358s-18.252-43.963-18.252-43.963S143.668 138.913 143.668 138.913s26.079 62.81 26.079 62.81S216.861 199.579 216.861 199.579 211.441 188.035 211.441 188.035 193.63 188.845 193.63 188.845C181.689 189.388 170.684 182.398 166.1 171.358z" id="path-2" class="cls-4" fill-rule="evenodd"/><path d="M-.012 207.161S85.996.011 85.996.011s86.01 207.15 86.01 207.15-172.018.0-172.018.0z" id="path-3" class="cls-5" fill-rule="evenodd"/><path d="M100.419 34.747S85.996.01 85.996.01 71.574 34.747 71.574 34.747s4.553 2.818 4.553 2.818C77.223 38.242 78.646 38.029 79.494 37.06l3.857-4.408C84.279 31.591 85.877 31.45 86.976 32.33L93.409 37.477C94.339 38.221 95.654 38.247 96.612 37.543l3.807-2.796z" id="path-4" class="cls-6" fill-rule="evenodd"/><path d="M173.817 107.909s-10.661-22.704-10.661-22.704S155.705 105.738 155.705 105.738C155.231 107.047 155.609 108.513 156.659 109.427L159.496 111.901S160.64 109.407 160.64 109.407C161.738 107.01 165.042 106.748 166.505 108.943 167.577 110.549 169.778 110.929 171.325 109.772L173.817 107.909z" id="path-5" class="cls-6" fill-rule="evenodd"/></g></svg>

<svg xmlns="http://www.w3.org/2000/svg" xmlns:xlink="http://www.w3.org/1999/xlink" preserveAspectRatio="xMidYMid" width="217" height="208" viewBox="0 0 217 208">
  <defs>
    <style>

      .cls-3 {
        fill: #142a3b;
      }

      .cls-4 {
        fill: #020403;
        opacity: 0.35;
      }

      .cls-5 {
        fill: #0cb04a;
      }

      .cls-6 {
        fill: #fbb713;
      }
    </style>
  </defs>
  <g id="group-27svg">
    <path d="M169.747,201.723 C169.747,201.723 216.861,199.579 216.861,199.579 C216.861,199.579 163.156,85.205 163.156,85.205 C163.156,85.205 143.668,138.913 143.668,138.913 C143.668,138.913 169.747,201.723 169.747,201.723 Z" id="path-1" class="cls-3" fill-rule="evenodd"/>
    <path d="M166.100,171.358 C166.100,171.358 147.848,127.395 147.848,127.395 C147.848,127.395 143.668,138.913 143.668,138.913 C143.668,138.913 169.747,201.723 169.747,201.723 C169.747,201.723 216.861,199.579 216.861,199.579 C216.861,199.579 211.441,188.035 211.441,188.035 C211.441,188.035 193.630,188.845 193.630,188.845 C181.689,189.388 170.684,182.398 166.100,171.358 Z" id="path-2" class="cls-4" fill-rule="evenodd"/>
    <path d="M-0.012,207.161 C-0.012,207.161 85.996,0.011 85.996,0.011 C85.996,0.011 172.006,207.161 172.006,207.161 C172.006,207.161 -0.012,207.161 -0.012,207.161 Z" id="path-3" class="cls-5" fill-rule="evenodd"/>
    <path d="M100.419,34.747 C100.419,34.747 85.996,0.010 85.996,0.010 C85.996,0.010 71.574,34.747 71.574,34.747 C71.574,34.747 76.127,37.565 76.127,37.565 C77.223,38.242 78.646,38.029 79.494,37.060 C79.494,37.060 83.351,32.652 83.351,32.652 C84.279,31.591 85.877,31.450 86.976,32.330 C86.976,32.330 93.409,37.477 93.409,37.477 C94.339,38.221 95.654,38.247 96.612,37.543 C96.612,37.543 100.419,34.747 100.419,34.747 Z" id="path-4" class="cls-6" fill-rule="evenodd"/>
    <path d="M173.817,107.909 C173.817,107.909 163.156,85.205 163.156,85.205 C163.156,85.205 155.705,105.738 155.705,105.738 C155.231,107.047 155.609,108.513 156.659,109.427 C156.659,109.427 159.496,111.901 159.496,111.901 C159.496,111.901 160.640,109.407 160.640,109.407 C161.738,107.010 165.042,106.748 166.505,108.943 C166.505,108.943 166.505,108.943 166.505,108.943 C167.577,110.549 169.778,110.929 171.325,109.772 C171.325,109.772 173.817,107.909 173.817,107.909 Z" id="path-5" class="cls-6" fill-rule="evenodd"/>
  </g>
</svg>
